X: 37218
T: Sister Jean
R: barndance
M: 4/4
K: Dmajor
|:d>B|A>Bd>e f2 f>d|g2 g>e f2 f>g|f2 e>f g>e (3Bcd|(3efe d>c d>e:|
|:f>g|a>A (3AAA A>FA>d|(3BcB A>^G A2- A>=g|(3fgf e>f g>ec>d|e>d (3ddc d2:|

